!!!OTL: 1497. Die blaue Flagge.
!!!ODT: 1840
!!!ARE: Europa, Mitteleuropa, Deutschland, Schleswig
!!!SCT: E1497
!!!YEM: Copyright 1995, estate of Helmut Schaffrath.
**kern
*ICvox
*M3/4
*k[b-e-]
*g:
!LO:TX:a:t=Mel. nach einer Aufʒeichnung in Schleswig um 1840.
{8.gL
16f#J
=1
4g
4d
8.gL
16aJ
=2
4b-
4f}
{8b-L
8ccJ
=3
4dd
8ddL
8ccJ
8ee-L
8ddJ
=4
4dd
4b-}
{8ccL
8ddJ
=5
8ee-L
8ddJ
8ccL
8b-J
8aL
8gJ
=6
8f#L
8aJ
4d}
{8enL
8f#J
=7
8gL
8aJ
8b-L
8ccJ
8ddL
8f#J
=8
4g
4r}
{8b-L
8ccJ
=9
4dd
8ddL
8ccJ
8ee-L
8ddJ
=10
4dd
4b-}
{8ee-L
8ddJ
=11
8ddL
8ccJ
8ccL
8b-J
8aL
8gJ
=12
8f#L
8aJ
4d
4r}
=13
{8gL
8f#
8g
8b-J
8aL
8f#J
=14
4.g}
{8b-L
8a
8ccJ
=15
8b-L
8dd
8cc
8ee-J
8ddL
8f#J
=16
4g
4r}
==
!!!AGN: Staende -, Seemanns - Lied, Tanz
!!!ONB: ESAC (Essen Associative Code) Database: ERK3
!!!AMT: simple triple
!!!AIN: vox
!!!EED: Helmut Schaffrath
!!!EEV: 1.0
!!!GTL: Staendelieder (Berufslieder). 4. Seemanslieder.
!!!URL-scan: https://rosdok.uni-rostock.de/mcrviewer/recordIdentifier/rosdok_ppn745177999/iview2/phys_0352.iview2?x=-128.77276441889285&y=152.70851851720363&scale=0.5870222003877487&rotation=0&layout=singlePageLayout
!!!ENC: Anna Maria Matuszewska
!!!EEV: 2025/03/01
*-
